img/logo-symbol-17.svg

<svg fill="none" height="56" viewBox="0 0 48 56" width="48" xmlns="http://www.w3.org/2000/svg" xmlns:xlink="http://www.w3.org/1999/xlink"><clipPath id="a"><path d="m0 .472656h47.6631v55h-47.6631z"/></clipPath><g clip-path="url(#a)"><path d="m23.806.472656 23.8059 13.744444v27.4887l-23.8059 13.7442-23.806-13.7442v-27.4887z" fill="#fff"/><g fill="#000"><path d="m39.9575 41.7129 3.8532-2.2278v-16.4744l-3.8532 2.2278z"/><path d="m37.107 43.3611-3.8004 2.1973v-16.4744l3.8004-2.1973z"/><path d="m26.6562 49.4041v-16.4744l3.8004-2.1973v16.4745z"/><path clip-rule="evenodd" d="m23.806.472656 23.8059 13.744444v27.4887l-23.8059 13.7442-23.806-13.7442v-27.4887zm-.0001 1.108444 22.8557 13.1958h-11.0019l-11.8538 13.1958-22.855799-13.1958zm-22.855804 16.4683.000005 23.119 22.855799 13.1958 22.8557-13.1958v-23.119l-22.8557 13.1958z" fill-rule="evenodd"/></g></g></svg>

<svg width="48" height="56" viewBox="0 0 48 56" fill="none" xmlns="http://www.w3.org/2000/svg">
<g clip-path="url(#clip0_3422_4921)">
<path d="M23.806 0.472656L47.6119 14.2171V41.7058L23.806 55.45L0 41.7058V14.2171L23.806 0.472656Z" fill="white"/>
<path d="M39.9575 41.7129L43.8107 39.4851V23.0107L39.9575 25.2385V41.7129Z" fill="black"/>
<path d="M37.107 43.3611L33.3066 45.5584V29.084L37.107 26.8867V43.3611Z" fill="black"/>
<path d="M26.6562 49.4041V32.9297L30.4566 30.7324V47.2069L26.6562 49.4041Z" fill="black"/>
<path fill-rule="evenodd" clip-rule="evenodd" d="M23.806 0.472656L47.6119 14.2171V41.7058L23.806 55.45L0 41.7058V14.2171L23.806 0.472656ZM23.8059 1.5811L46.6616 14.7769H35.6597L23.8059 27.9727L0.950101 14.7769L23.8059 1.5811ZM0.950096 18.0494L0.950101 41.1684L23.8059 54.3642L46.6616 41.1684V18.0494L23.8059 31.2452L0.950096 18.0494Z" fill="black"/>
</g>
<defs>
<clipPath id="clip0_3422_4921">
<rect width="47.6631" height="55" fill="white" transform="translate(0 0.472656)"/>
</clipPath>
</defs>
</svg>
